X: 34219
T: Reel St-Michel
R: reel
M: 4/4
K: Gmajor
|:g~G3 f~G3|e~G3 d~G3|F2AF DFAF|GABc d2ef|
g~G3 f~G3|e~G3 d~G3|F2AF DFAF|1 GBAF G2ef:|2 GBAF GBAG||
K:Dmaj
|:FAdf a2AG|FAdf a2af|eA c/B/A eA c/B/A|eA c/B/A (3BcB AG|
FAdf a2AG|FAdf a2af|eA c/B/A eABc|1 dfec dBAG:|2 dfec d2ef||

